X:1
T:Title
%%score 1 { 2 | 3 }
L:1/8
Q:1/4=107
M:4/4
K:Eb
V:1 treble nm="Grand Piano, Soprano"
V:2 bass nm="Choir Pad, Basel, CM"
V:3 bass 
V:1
 [EB]2 [FB]2 [EB]2 [Ec]2 | [Ad]2 [Ge]2 [Fe]2 [Fd]2 | [Dc]2 [EB]2 [EG]2 [EA]2 | [DF]2 E6 | %4
w: By~Kemble’s~Selection,~1864 * * *||||
 [DF]2 [DF]2 [=EG]2 [FA]2 | [FB]2 [FG]2 [EG]2 [DF]2 | [EB]2 [Ec]2 [EF]2 [EG]2 | [DF]2 E6- | %8
w: ||||
 E2 z2 z4 |] %9
w: |
V:2
 G,2 A,2 G,2 A,2 | A,2 B,2 C2 B,2 | B,2 B,2 C2 C2 | B,A, G,6 | B,2 B,2 B,2 C2 | B,2 B,2 B,2 B,2 | %6
 B,2 A,2 C2 B,2 | B,=A, G,6- | G,2 z2 z4 |] %9
V:3
 E,2 D,2 E,2 z2 | F,2 G,2 =A,2 z2 | A,2 G,2 C,2 F,2 | B,,2 E,6 | z2 A,2 G,2 F,2 | D,2 E,2 G,2 z2 | %6
 G,,2 A,,2 =A,,2 B,,2 | B,,2 E,6- | E,2 z2 z4 |] %9

